package/converter/svg/thin/rectangle-terminal.svg

<svg xmlns="http://www.w3.org/2000/svg" viewBox="0 0 512 512"><!-- Font Awesome Pro 6.0.0-alpha2 by @fontawesome - https://fontawesome.com License - https://fontawesome.com/license (Commercial License) --><path d="M448 32H64C28.654 32 0 60.656 0 96V416C0 451.344 28.654 480 64 480H448C483.346 480 512 451.344 512 416V96C512 60.656 483.346 32 448 32ZM496 416C496 442.469 474.467 464 448 464H64C37.533 464 16 442.469 16 416V96C16 69.531 37.533 48 64 48H448C474.467 48 496 69.531 496 96V416ZM221.438 250.125L109.438 146.125C106.234 143.188 101.188 143.281 98.141 146.562C95.125 149.781 95.312 154.844 98.562 157.875L204.25 256L98.562 354.125C95.312 357.156 95.125 362.219 98.141 365.437C99.719 367.156 101.859 368 104 368C105.953 368 107.906 367.281 109.438 365.875L221.438 261.875C223.078 260.344 224 258.219 224 256S223.078 251.656 221.438 250.125ZM408 368H232C227.578 368 224 371.594 224 376S227.578 384 232 384H408C412.422 384 416 380.406 416 376S412.422 368 408 368Z"/></svg>

<svg xmlns="http://www.w3.org/2000/svg" viewBox="0 0 512 512"><!--! Font Awesome Pro 6.6.0 by @fontawesome - https://fontawesome.com License - https://fontawesome.com/license (Commercial License) Copyright 2024 Fonticons, Inc. --><path d="M448 48c26.5 0 48 21.5 48 48l0 320c0 26.5-21.5 48-48 48L64 464c-26.5 0-48-21.5-48-48L16 96c0-26.5 21.5-48 48-48l384 0zM64 32C28.7 32 0 60.7 0 96L0 416c0 35.3 28.7 64 64 64l384 0c35.3 0 64-28.7 64-64l0-320c0-35.3-28.7-64-64-64L64 32zM97.9 154.8c-2.9 3.4-2.5 8.4 .9 11.3L203.7 256 98.8 345.9c-3.4 2.9-3.7 7.9-.9 11.3s7.9 3.7 11.3 .9l112-96c1.8-1.5 2.8-3.7 2.8-6.1s-1-4.6-2.8-6.1l-112-96c-3.4-2.9-8.4-2.5-11.3 .9zM200 368c-4.4 0-8 3.6-8 8s3.6 8 8 8l208 0c4.4 0 8-3.6 8-8s-3.6-8-8-8l-208 0z"/></svg>
